X: 6284
T: Carolan's Welcome
R: waltz
M: 3/4
K: Eminor
GF|:E2 GA B2|E2 GA B2|AB AG FE|(3DEF D2 B2|
G3F E2|A3G F2|GB B2 D2|E4 GF|
E2 GA B2|E2 GA B2|AB AG FE|(3DEF D2 B2|
d3c B2|e3d BA|GB AG FG|1 E4 GF:|2 E4 E2|
|:B2 ef g2|B2 ef g2|gf ed ef|g2 B2 B2|
c2 ec BA|B2 dB AG|A2 B2 d2|e6|
ed Bd e2|dBAB d2|BA GA BG|A2 F2 (3DEF|
G3F E2|A3G F2|GB B2 D2|1 E4 E2:|2 E6|

